X: 5460
T: Bunch Of Keys, The
R: reel
M: 4/4
K: Gmajor
DG{A}GF ~G3 A|BGdG eGdG|D=F{G}FE ~F2 EF|D/E/=F CF A,FCF|
DGGF ~G2 DG|BAGA Bcde|~=f3d ceAc|BGAF DG~G2|
DGGF ~G3 A|BGG/G/G eGdG|D=F{G}FE ~F3G|AcBc d/c/B cB|
AG{A}GF ~G2 DG|BAGA Bcde|~=f3d ceAc|BGAF DG~G2||
dg{a}gf ~g3 a|bg~g2 bga=f|d=f{g}fe ~f3g|a=f~f2 afgf|
dg{a}gf ~g3a|bgag fdde|=fa g/f/e fdcA|GBAF DG~G2|
dg{a}gf ~g3 a|bg~g2 bga=f|d=f{g}fe ~f2ef|d=f~f2 dfcf|
dg~g2 dg ~g2|dgbg fdde|=fa g/f/e fdcA|GBAF DG~G2||
BG~G2 DGB,G|BG~G2 BdcB|A=F~F2 CFA,F|A=F~F2 dFcA|
BG~G2 DGB,G|G,G~G2 Bcde|~=f3d ceAc|BGAF DG~G2|
BG~G2 DGB,G|BG~G2 BdcB|A=F~F2 CF~F2|A,=F~F2 ABcd|
BG~G2 DG~G2|B,G~G2 Bcde|~=f3d ceAc|BGAF DG~G2||

